svg/relation_one_to_one.svg

<svg xmlns="http://www.w3.org/2000/svg" viewBox="0 0 24 24"><path d="M22 15v2h-3v2h-2v-2h-6V9H7v2H5V9H2V7h3V5h2v2h6v8h4v-2h2v2Z"/></svg>

<?xml version="1.0" encoding="UTF-8"?><!DOCTYPE svg PUBLIC "-//W3C//DTD SVG 1.1//EN" "http://www.w3.org/Graphics/SVG/1.1/DTD/svg11.dtd"><svg xmlns="http://www.w3.org/2000/svg" xmlns:xlink="http://www.w3.org/1999/xlink" version="1.1" id="mdi-relation-one-to-one" width="24" height="24" viewBox="0 0 24 24"><path d="M22 15V17H19V19H17V17H11V9H7V11H5V9H2V7H5V5H7V7H13V15H17V13H19V15Z" /></svg>
